X:1
T:Cock of the East and West
L:1/8
M:6/8
I:linebreak $
K:G
V:1 treble 
V:1
 d2 c | B2 B BAB | (d3 d2) B | c2 c/B/ cBc | e3 d2 c | B2 B BAB | (d3 d)cB | A2 A A>BA | G3 :| %9
 z2 z |$ g2 d e2 d | g2 d efg | B2 B BAB | (A3 A2) (g | g2) d e2 d |[M:9/8] g2 d (a3 a2) g | %16
[M:6/8] f2 d def | (g3 g3 | g3) || %19
